Adwaita++/actions/16/project-development-new-template.svg

<svg height="16" viewBox="0 0 16 16" width="16" xmlns="http://www.w3.org/2000/svg">
  <path d="m2 1c-1 0-1 1-1 1v12c0 1 1 1 1 1h7v-2h-6v-7h10v3h2v-7c0-1-1-1-1-1zm10 8-.574219 1.613281-1.5468748-.7343748.7343748 1.5468748-1.6093748.574219 1.6132818.574219-.7343755 1.546875 1.5468755-.734375.570312 1.613281.568359-1.613281 1.550782.734375-.730469-1.546875 1.611328-.574219-1.611328-.574219.730469-1.5468748-1.550782.7343748z" fill="#474747"/>
</svg>

<svg xmlns="http://www.w3.org/2000/svg" width="16" height="16" viewBox="0 0 16 16">
 <defs>
  <style id="current-color-scheme" type="text/css">
   .ColorScheme-Text { color:#474747; } .ColorScheme-Highlight { color:#4285f4; }
  </style>
 </defs>
 <path style="fill:currentColor" class="ColorScheme-Text" d="M 2 1 C 1 1 1 2 1 2 L 1 14 C 1 15 2 15 2 15 L 9 15 L 9 13 L 3 13 L 3 6 L 13 6 L 13 9 L 15 9 L 15 2 C 15 1 14 1 14 1 L 2 1 z M 12 9 L 11.425781 10.613281 L 9.8789062 9.8789062 L 10.613281 11.425781 L 9.0039062 12 L 10.617188 12.574219 L 9.8828125 14.121094 L 11.429688 13.386719 L 12 15 L 12.568359 13.386719 L 14.119141 14.121094 L 13.388672 12.574219 L 15 12 L 13.388672 11.425781 L 14.119141 9.8789062 L 12.568359 10.613281 L 12 9 z"/>
</svg>
